www/assets/icons/pest_control.svg

<svg width="24" height="24" viewBox="0 0 24 24" xmlns="http://www.w3.org/2000/svg" fill='currentColor'><path d="M21 13.1199H17.93C17.88 12.7299 17.81 12.3499 17.71 11.9799L20.29 10.4899L19.29 8.75988L16.92 10.1199C16.64 9.63988 16.3 9.20988 15.93 8.82988C15.97 8.59988 16 8.36988 16 8.11988C16 7.31988 15.76 6.56988 15.35 5.93988L17 4.28988L15.59 2.87988L13.87 4.59988C12.19 3.70988 10.77 4.26988 10.14 4.59988L8.41 2.87988L7 4.28988L8.65 5.93988C8.24 6.56988 8 7.31988 8 8.11988C8 8.36988 8.03 8.59988 8.07 8.83988C7.7 9.21988 7.36 9.64988 7.08 10.1199L4.71 8.74988L3.71 10.4799L6.29 11.9699C6.19 12.3399 6.12 12.7199 6.07 13.1099H3V15.1099H6.07C6.12 15.4999 6.19 15.8799 6.29 16.2499L3.71 17.7399L4.71 19.4699L7.08 18.1199C8.16 19.9299 9.96 21.1199 12 21.1199C14.04 21.1199 15.84 19.9299 16.92 18.1199L19.29 19.4899L20.29 17.7599L17.71 16.2699C17.81 15.8999 17.88 15.5199 17.93 15.1299H21V13.1199ZM13 17.1199H11V11.1199H13V17.1199Z"/></svg>

<svg xmlns="http://www.w3.org/2000/svg" width="24" height="24" viewBox="0 0 24 24" fill='currentColor'><path d="M21 13.12h-3.07c-.05-.39-.12-.77-.22-1.14l2.58-1.49-1-1.73-2.37 1.36c-.28-.48-.62-.91-.99-1.29.04-.23.07-.46.07-.71 0-.8-.24-1.55-.65-2.18L17 4.29l-1.41-1.41-1.72 1.72c-1.68-.89-3.1-.33-3.73 0L8.41 2.88 7 4.29l1.65 1.65A4 4 0 0 0 8 8.12c0 .25.03.48.07.72-.37.38-.71.81-.99 1.28L4.71 8.75l-1 1.73 2.58 1.49c-.1.37-.17.75-.22 1.14H3v2h3.07c.05.39.12.77.22 1.14l-2.58 1.49 1 1.73 2.37-1.35c1.08 1.81 2.88 3 4.92 3s3.84-1.19 4.92-3l2.37 1.37 1-1.73-2.58-1.49c.1-.37.17-.75.22-1.14H21zm-8 4h-2v-6h2z"/></svg>
